X:1
T:Occhi miei pur sapete
T:Domenico Obizzi
T:madrigal
T:Source : Madrigali et arie a voce sola---Libro I ---Venetia---A.Vincenti---1627. Editor : André Vierendeels (21/02/16).
T:Notes : Original clefs C1, F4 Editorial accidentals above the staff Figures above the BC are notated in original print  
T:Occhi miei pur sapete
T:©
T:©
T:©
T:©
T:©
C:Domenico Obizzi
Z:©
%%score 1 2
L:1/8
Q:1/4=121
M:4/4
K:F
V:1 treble nm="Soprano" snm="S"
V:2 bass nm="BC" snm="BC"
V:1
 z2 d4 A/B/c/A/ | B6 AG | A4 A4 | z2 A2 B2 A2 | B2 c/d/_e/c/ d4 | c2 c2 BAAG | A4 A2 D/E/F/D/ | %7
w: Oc chi _ _ _|miei pur sa-|pe- te,|che men- tre|ch'io v'af- * * * fi|so ne l'a- do- ra- to|vi- so, so- * * *|
 E2 ^F/G/A/F/ G2 A/F/G/A/ | B3 A c2 B2 | A4 G4 | z2 G4 D/E/F/D/ | E6 DC | D4 C4 | z2 E2 F2 E2 | %14
w: spin- ti'à _ _ _ la- gri- * * *|mar per for- za|se- te,|oc- chi _ _ _|miei pur sa|per- te,|che men- tre|
 F2 G/A/B/G/ A4 | A2 A2 GFED | E4 E2 c2 | c2 B2 B3 c | A6 F2 | F3 G G4 | F2 c2 dc dc | %21
w: ch'io v'af- * * * fi|so ne l'a- do- ra- to|vi- so, so-|spin- ti'à la- gri-|mar per|for- za se-|te, à la- * gri- *|
 c=B cB _BA cB | A4 G4 | z2 B2 A2 F2 | GA B4- A2 | B2 d2 c2 A2 | B3 A GA B/A/B/G/ | A4 z4 | %28
w: mar _ per _ for- * za _|se- te,|e per mio-|rar vo- le- *|te, e per mi-|rar vo- le- * * * * *|te,|
 z2 B/A/B/c/ d/D/E/F/ G/A/B/c/ | d2 c/B/c/A/ B3 B | A>B A>B c2 cc | c2 =B2 c2 cd | _edcB A4 | %33
w: mà _ _ _ for- * * * * * * *|* se'ag- * * * gra- d'à|vo- * * * * i, ri-|mi- rar pri- ma e|la- gri- mar da po-|
 G4 z2 B/A/B/c/ | d2 c/B/c/A/ B3 B | A>B A>B cc F/E/F/G/ | A2 B/A/B/G/ FG/A/ GF | E>F E>F G2 GG | %38
w: i, mà _ _ _|for- se'ag- * * * gra- d'à|vo- * * * * i, mà _ _ _|for- se'ag- * * * gra- * * * d'à|vo- * * * * i, ri-|
 A2 A2 B2 BA | BAGF E4 | D4 z ABc | d2 d2 z FGA | B2 B2 z2 d2 | c3 B B3 A | A8 | G8 |] %46
w: mi- rar pri- ma e|la- gri- mar da po-|i, ri- mi- rar|pri- ma, ri- mi- rar|pri- ma, e|la- gri- mar da|po-|i.|
V:2
 G,,4 D,4 |"^#" G,,4 G,,4 |"^#""^#" D,4 D,,4 |"^#""^#" D,4 D,4 | C,4 B,,C,D,B,, | F,2 C,2 D,2 E,2 | %6
 F,4 F,2 B,,2 | C,2 D,2 G,,2 ^F,,2 | G,,4 C,4 | D,4 G,,4 | G,,4 A,,2 =B,,2 | C,4 A,,4 | G,,4 C,4 | %13
 C,4 C,4 | B,,4 A,,4 | A,,4 =B,,4 | C,4 C,4 | D,4 E,4 | F,3 E, D,3 C, | B,,2 =B,,2 C,4 | %20
 F,,2 F,4 ^F,2 | G,4 C,4 | D,4 G,,4 | G,4 F,2 D,2 | _E,3 D, C,B,, C,2 | B,,4 A,,2 F,,2 | %26
 G,,2 D,2 _E,4 | D,2 D,2 C,2 A,,2 | B,,4 B,,4 | B,,2 A,,2 G,,4 | F,,4 F,3 E, | D,2 G,2 C,4 | %32
 C,4 D,4 | G,,4 G,4 | B,2 A,2 G,4 | F,4 F,,4 | F,2 E,2 D,4 | C,4 C,3 B,, | A,,2 D,2 G,,4 | %39
 G,,4 A,,4 | D,4 D,2 C,2 | B,,4 B,,2 A,,2 | G,,4 B,,4 | C,2 D,2 _E,2 C,2 |"^#" D,8 | G,,8 |] %46

